azure-patterns/svg-self-paced-lab.svg

<svg xmlns="http://www.w3.org/2000/svg" viewBox="0 0 24 15"><path d="M0 1.5V0h1.5v1.5zM0 6V4.5h1.5V6zm0 4.5V9h1.5v1.5zM0 15v-1.5h1.5V15zM4.5 0H24v1.5H4.5zm0 6V4.5H24V6zm0 4.5V9H24v1.5zm0 4.5v-1.5H24V15z" fill="#969696"/></svg>

<svg xmlns="http://www.w3.org/2000/svg" viewBox="0 0 24 15">
                                
                            
  <path d="M0,1.5V0H1.5V1.5ZM0,6V4.5H1.5V6Zm0,4.5V9H1.5v1.5ZM0,15V13.5H1.5V15ZM4.5,0H24V1.5H4.5Zm0,6V4.5H24V6Zm0,4.5V9H24v1.5Zm0,4.5V13.5H24V15Z" fill="#969696"></path>
</svg>
